resources/icons/20px/group-item.svg

<svg width="20" height="20" viewBox="0 0 20 20" fill="none" xmlns="http://www.w3.org/2000/svg">
<path d="M15.7572 0.702805C15.3666 0.312281 14.7335 0.312281 14.3429 0.702805L10.8074 4.23834C10.4169 4.62886 10.4169 5.26203 10.8074 5.65255L14.3429 9.18809C14.7335 9.57861 15.3666 9.57861 15.7572 9.18809L19.2927 5.65255C19.6832 5.26203 19.6832 4.62886 19.2927 4.23834L15.7572 0.702805Z" fill="#111418"/>
<path fill-rule="evenodd" clip-rule="evenodd" d="M0.999756 1.9957C0.999756 1.44341 1.44747 0.995699 1.99976 0.995699H7.99976C8.55204 0.995699 8.99976 1.44341 8.99976 1.9957V7.9957C8.99976 8.54798 8.55204 8.9957 7.99976 8.9957H1.99976C1.44747 8.9957 0.999756 8.54798 0.999756 7.9957V1.9957ZM2.99976 6.9957V2.9957H6.99976V6.9957H2.99976Z" fill="#111418"/>
<path fill-rule="evenodd" clip-rule="evenodd" d="M1.99976 10.9957C1.44747 10.9957 0.999756 11.4434 0.999756 11.9957V17.9957C0.999756 18.548 1.44747 18.9957 1.99976 18.9957H7.99976C8.55204 18.9957 8.99976 18.548 8.99976 17.9957V11.9957C8.99976 11.4434 8.55204 10.9957 7.99976 10.9957H1.99976ZM2.99976 12.9957V16.9957H6.99976V12.9957H2.99976Z" fill="#111418"/>
<path fill-rule="evenodd" clip-rule="evenodd" d="M10.9998 11.9957C10.9998 11.4434 11.4475 10.9957 11.9998 10.9957H17.9998C18.552 10.9957 18.9998 11.4434 18.9998 11.9957V17.9957C18.9998 18.548 18.552 18.9957 17.9998 18.9957H11.9998C11.4475 18.9957 10.9998 18.548 10.9998 17.9957V11.9957ZM12.9998 16.9957V12.9957H16.9998V16.9957H12.9998Z" fill="#111418"/>
</svg>

<svg xmlns="http://www.w3.org/2000/svg" viewBox="0 0 20 20">
  <path d="M15.757.703a1 1 0 0 0-1.414 0l-3.536 3.535a1 1 0 0 0 0 1.415l3.536 3.535a1 1 0 0 0 1.414 0l3.536-3.535a1 1 0 0 0 0-1.415zM1 1.996a1 1 0 0 1 1-1h6a1 1 0 0 1 1 1v6a1 1 0 0 1-1 1H2a1 1 0 0 1-1-1zm2 5v-4h4v4zM2 10.996a1 1 0 0 0-1 1v6a1 1 0 0 0 1 1h6a1 1 0 0 0 1-1v-6a1 1 0 0 0-1-1zm1 2v4h4v-4zM11 11.996a1 1 0 0 1 1-1h6a1 1 0 0 1 1 1v6a1 1 0 0 1-1 1h-6a1 1 0 0 1-1-1zm2 5v-4h4v4z"/>
</svg>
